assets/tab_exchange.svg

<svg height="24" viewBox="0 0 4.7624997 6.3500001" width="18" xmlns="http://www.w3.org/2000/svg"><g fill="#6b7387" fill-rule="evenodd"><path d="m4.05638 8.38095h-2.38019v-1.95485h1.82076.55943c.53638 0 .97219.43685.97219.98266 0 .53534-.43581.97219-.97219.97219zm-2.38019-5.58695h1.82076c.53743 0 .97324.43581.97324.98267 0 .53638-.43581.97219-.97324.97219h-1.82076zm5.02752 4.60429c0-.858-.41485-1.61439-1.04971-2.09734.30695-.43371.49133-.96171.49133-1.53476 0-.88943-.44314-1.67305-1.11676-2.1539v-.774195c0-.463047-.37609-.838095-.83809-.838095s-.8381.375048-.8381.838095v.278665h-.55943v-.278665c0-.463047-.37505-.838095-.83809-.838095-.462 0-.8381.375048-.8381.838095v.278665h-.278665c-.463047 0-.838095.3761-.838095.8381v3.63209 3.6321c0 .462.375048.83805.838095.83805h.278665v.2787c0 .4631.3761.8381.8381.8381.46304 0 .83809-.375.83809-.8381v-.2787h.55943v.2787c0 .4631.3761.8381.8381.8381s.83809-.375.83809-.8381v-.46932c.97953-.38972 1.67514-1.34305 1.67514-2.46819z" transform="matrix(.21647306 0 0 .23761601 1.71397433956 1.78859637685)"/><path d="m1.01305 19.803c.56257 0 1.01305-.4504 1.01305-1.013v-14.54515h14.3471v1.46353c0 .28076.1415.53533.3939.67467.1132.05657.2536.11314.3939.11314.1415 0 .2819-.02829.394-.11314l4.0239-2.44724c.2252-.14038.3645-.39286.3645-.67467s-.1393-.53533-.3645-.67571l-4.0512-2.475528c-.2546-.1414282-.5353-.1414282-.7878-.0282853-.2535.1414283-.3939.4221903-.3939.7040003v1.462473h-15.33295c-.562574 0-1.01305.45048-1.01305 1.01305v15.55816c0 .5333.450476.9837 1.01305.9837" transform="matrix(.21647306 0 0 .23761601 .00000018057 .00000031511)"/><path d="m20.9031 0c-.5625 0-1.013.450476-1.013 1.01305v14.54405h-14.31991v-1.4635c0-.2807-.14038-.5343-.39286-.6746-.25352-.1404-.56257-.1404-.78781.0282l-4.023901 2.4473c-.22419.1414-.365619.3939-.365619.6746 0 .2819.141429.5354.365619.6758l4.023901 2.4482c.1121.0839.25353.1121.39391.1121s.25247-.0282.3939-.1121c.25248-.1414.39286-.3939.39286-.6757v-1.4624h15.33291c.5626 0 1.0131-.4505 1.0131-1.0131v-15.52885c0-.562574-.4505-1.01305-1.0131-1.01305" transform="matrix(.21647306 0 0 .23761601 .01823327347 1.64396782812)"/></g></svg>

<?xml version="1.0" encoding="UTF-8" standalone="no"?>
<svg
   xmlns:dc="http://purl.org/dc/elements/1.1/"
   xmlns:cc="http://creativecommons.org/ns#"
   xmlns:rdf="http://www.w3.org/1999/02/22-rdf-syntax-ns#"
   xmlns:svg="http://www.w3.org/2000/svg"
   xmlns="http://www.w3.org/2000/svg"
   id="svg8"
   version="1.1"
   viewBox="0 0 4.7624997 6.3500001"
   height="24"
   width="18">
  <defs
     id="defs2" />
  <metadata
     id="metadata5">
    <rdf:RDF>
      <cc:Work
         rdf:about="">
        <dc:format>image/svg+xml</dc:format>
        <dc:type
           rdf:resource="http://purl.org/dc/dcmitype/StillImage" />
        <dc:title></dc:title>
      </cc:Work>
    </rdf:RDF>
  </metadata>
  <g
     transform="translate(-12.658327,-5.3753032)"
     id="layer1">
    <g
       transform="matrix(0.21647306,0,0,0.23761601,12.65838,5.3755538)"
       id="g4993">
      <path
         style="fill:#6b7387;fill-rule:evenodd;stroke:none"
         d="M 4.05638,8.38095 H 1.67619 V 6.4261 h 1.82076 0.55943 c 0.53638,0 0.97219,0.43685 0.97219,0.98266 0,0.53534 -0.43581,0.97219 -0.97219,0.97219 z M 1.67619,2.794 h 1.82076 c 0.53743,0 0.97324,0.43581 0.97324,0.98267 0,0.53638 -0.43581,0.97219 -0.97324,0.97219 H 1.67619 Z M 6.70371,7.39829 C 6.70371,6.54029 6.28886,5.7839 5.654,5.30095 5.96095,4.86724 6.14533,4.33924 6.14533,3.76619 6.14533,2.87676 5.70219,2.09314 5.02857,1.61229 V 0.838095 C 5.02857,0.375048 4.65248,0 4.19048,0 3.72848,0 3.35238,0.375048 3.35238,0.838095 V 1.11676 H 2.79295 V 0.838095 C 2.79295,0.375048 2.4179,0 1.95486,0 1.49286,0 1.11676,0.375048 1.11676,0.838095 V 1.11676 H 0.838095 C 0.375048,1.11676 0,1.49286 0,1.95486 v 3.63209 3.6321 c 0,0.462 0.375048,0.83805 0.838095,0.83805 H 1.11676 v 0.2787 c 0,0.4631 0.3761,0.8381 0.8381,0.8381 0.46304,0 0.83809,-0.375 0.83809,-0.8381 v -0.2787 h 0.55943 v 0.2787 c 0,0.4631 0.3761,0.8381 0.8381,0.8381 0.462,0 0.83809,-0.375 0.83809,-0.8381 V 9.86648 C 6.0081,9.47676 6.70371,8.52343 6.70371,7.39829 Z"
         transform="translate(7.9174805,7.5261993)"
         id="Fill-7" />
      <path
         style="fill:#6b7387;fill-rule:evenodd;stroke:none"
         d="m 1.01305,19.803 c 0.56257,0 1.01305,-0.4504 1.01305,-1.013 V 4.24485 h 14.3471 v 1.46353 c 0,0.28076 0.1415,0.53533 0.3939,0.67467 0.1132,0.05657 0.2536,0.11314 0.3939,0.11314 0.1415,0 0.2819,-0.02829 0.394,-0.11314 l 4.0239,-2.44724 c 0.2252,-0.14038 0.3645,-0.39286 0.3645,-0.67467 0,-0.28181 -0.1393,-0.53533 -0.3645,-0.67571 L 17.5277,0.109902 C 17.2731,-0.0315262 16.9924,-0.0315262 16.7399,0.0816167 16.4864,0.223045 16.346,0.503807 16.346,0.785617 V 2.24809 H 1.01305 C 0.450476,2.24809 0,2.69857 0,3.26114 V 18.8193 c 0,0.5333 0.450476,0.9837 1.01305,0.9837"
         transform="translate(-2.4414062e-4,-0.00105476)"
         id="Fill-1" />
      <path
         style="fill:#6b7387;fill-rule:evenodd;stroke:none"
         d="m 20.9031,0 c -0.5625,0 -1.013,0.450476 -1.013,1.01305 V 15.5571 H 5.57019 v -1.4635 c 0,-0.2807 -0.14038,-0.5343 -0.39286,-0.6746 C 4.92381,13.2786 4.61476,13.2786 4.38952,13.4472 L 0.365619,15.8945 C 0.141429,16.0359 0,16.2884 0,16.5691 c 0,0.2819 0.141429,0.5354 0.365619,0.6758 l 4.023901,2.4482 c 0.1121,0.0839 0.25353,0.1121 0.39391,0.1121 0.14038,0 0.25247,-0.0282 0.3939,-0.1121 0.25248,-0.1414 0.39286,-0.3939 0.39286,-0.6757 V 17.555 H 20.9031 c 0.5626,0 1.0131,-0.4505 1.0131,-1.0131 V 1.01305 C 21.9162,0.450476 21.4657,0 20.9031,0"
         transform="translate(0.08398437,6.917534)"
         id="Fill-4" />
    </g>
  </g>
</svg>
